X: 100425
T: HOOLEY'S HORNPIPE
C: Com. by R.M. Hooley
R: hornpipe
B: K\"ohler's Violin Repository, v.3, 1885 p.272 #3
F: http://www.archive.org/details/klersviolinrepos03rugg
Z: 2012 John Chambers <jc:trillian.mit.edu>
M: C|
L: 1/8
K: Bb
!segno!(uDE) |\
FGF=E FABc | dDFB d2(cd) | ecdB c(BAB) | (3cdc (3BAG F(EDE) |
FGF=E FABc | eFAc g2(fe) | Bbag fedc | (3Bdf (3bfd B2 :| ub |
d'c'ba bdfb | d'c'ba bdfb | c'bag ad^fa | c'bag ad^fa |
d'c'ba (bd')d'2 | edc=B cfa2 | (ba)gf =ebge | {g}f=efg f2~f2 |
bagf eg^fg | eg^fg cg^fg | =fedc Bf~f2 | df~f2 Bf~f2 |
(ba)ba bagf | (gf)gf (gf)ed | cBdc edf=e | (gf)ag (fe)dc !segno!"_D.C."|]

% newpage
%%sep 2 1 500

